src/app/icon.svg

<svg width="100" height="100" viewBox="0 0 100 100" fill="none" xmlns="http://www.w3.org/2000/svg">
<path d="M10 100C4.47715 100 -1.95703e-07 95.5228 -4.37114e-07 90L-6.99382e-07 84C-9.40793e-07 78.4772 4.47715 74 10 74L27 74C32.5228 74 37 69.5228 37 64L37 40C37 38.3431 38.3431 37 40 37L60 37C61.6569 37 63 38.3431 63 40L63 90C63 95.5228 58.5228 100 53 100L10 100Z" fill="#0090FF"/>
<path d="M0 10.0001C0 4.47721 4.47715 5.17964e-05 10 5.17964e-05H26L74.0853 1.8139e-05C88.3976 8.12112e-06 100 11.6024 100 25.9147V25.9147V100H84C78.4772 100 74 95.5228 74 90V30.9911C74 28.2332 71.7668 25.996 69.0089 25.9911L31.0089 25.9236C28.244 25.9186 26 28.1587 26 30.9236V59.4146C26 61.6238 24.2091 63.4146 22 63.4146H10C4.47715 63.4146 0 58.9375 0 53.4146V10.0001Z" fill="#0090FF"/>
</svg>

<svg xmlns="http://www.w3.org/2000/svg" viewBox="0 0 100 100" fill="#0090FF">
  <path d="M10 100c-6 0-10-4-10-10v-6c0-6 4-10 10-10h17c6 0 10-4 10-10V40c0-2 1-3 3-3h20c2 0 3 1 3 3v50c0 6-4 10-10 10H10Z"/>
  <path d="M0 10C0 4 4 0 10 0h64c14 0 26 12 26 26v74H84c-6 0-10-4-10-10V31c0-3-2-5-5-5H31c-3 0-5 2-5 5v28c0 3-2 4-4 4H10C4 63 0 59 0 53V10Z"/>
</svg>
